outputs/icons/enterprise/tap_to_pay_round.svg

<svg xmlns="http://www.w3.org/2000/svg" width="1200" height="1200" fill="none"><path fill="#000" d="M469.918 898.905c-119.147-10.565-224.368-55.28-292.868-124.38-39.064-39.485-62.698-82.19-73.402-132.595-4.884-22.94-4.845-61.005 0-84.125 14.844-70.086 59.651-131.407 130.221-178.178 160.927-106.612 407.461-106.138 566.866 1.243a326 326 0 0 1 54.01 44.7c24.16 24.125 41.155 48.093 59.085 83.335.665 1.3 3.905 2.96 7.305 3.65 11.305 2.39 26.385 11.275 38.535 22.745 9.415 8.885 16.7 18.575 34.67 46.04 17.97 27.46 100.16 155.73 105.145 164.1 1.95 3.26-1.955 8.495-6.215 8.495-3.065 0-5.255-2.075-9.765-9.26-3.205-5.095-24.12-37.93-46.485-72.935-79.145-123.925-83.465-129.67-105.475-140.805l-11.605-5.92h-34.045c-33.985 0-34.025 0-34.865 3.615-4.51 19.74-5.33 24.675-4.355 25.665.625.59 19.945 11.705 42.97 24.695l41.8 23.695-2.615 5.525c-1.445 3.06-3.085 5.55-3.675 5.55-.585 0-35.74-19.745-78.13-43.73-42.385-23.99-79.55-44.425-82.58-45.27-12.05-3.36-30.59 10.145-30.59 22.29 0 12.14 3.635 15.91 78.13 77.57 46.47 38.455 73.05 61.575 77.115 67.025 7.385 9.87 14.845 24.58 21.74 42.625 12.11 31.745 31.8 49.455 64.105 57.63l10.625 2.705-.9 5.92a27.6 27.6 0 0 1-1.52 6.595c-1.37 1.58-22.775-5.31-35.16-11.335-19.375-9.415-32.675-22.82-45.765-46.115-.095-.16-7.695 2.465-16.875 5.92-16.33 6.025-17.07 6.515-32.48 21.72-65.69 64.795-159.895 106.195-273.65 120.27-18.44 2.27-89.575 3.28-109.224 1.54zm113.287-19.94c52.19-6.97 92.66-17.455 135.025-34.965 44.455-18.4 86.395-44.855 115.73-73.05l11.565-11.095L816.42 745.8c-31.095-15.005-34.16-17.495-38.145-30.92-2.5-8.47.33-17.47 8.28-26.175l6.175-6.795-13.5-10.365c-10.685-8.195-14.025-11.845-16.075-17.215a27.7 27.7 0 0 1-1.635-13.4 27.5 27.5 0 0 1 4.9-12.56l4.1-5.925-42.64-7.58c-23.44-4.165-45.315-8.375-48.575-9.36-6.39-1.975-12.91-9.24-14.59-16.465-.9-3.95 20-107.007 24.665-121.716 2.09-6.574 11.02-14.53 17.755-15.794 6.74-1.263 132.725 21.008 138.995 24.7 9.9 5.923 13.025 15.26 9.885 29.715l-1.31 6.06h6.955c3.905 0 12.89-.475 20.115-1.05l13.165-1.025-6.525-12.26c-19.765-37.098-55.47-74.411-99.615-104.065-20.545-13.82-64.455-35.695-90.88-45.251a557.3 557.3 0 0 0-126.765-28.39c-23.965-2.526-86.764-2.487-110.027 0-55.784 6.121-106.432 18.874-150.712 37.946-102.525 44.184-171.454 117.371-189.092 200.785-4.609 21.715-4.981 59.96-.762 79.78 9.337 43.83 29.71 81.775 62.876 117.075 67.542 71.945 170.711 116.13 294.429 126.12 16.583 1.5 88.463-.455 105.258-2.705zm-22.735-78.5c-6.39-1.875-12.855-9.535-14.22-16.88-.88-4.755.195-8.075 6.975-21.3 27.345-53.445 39.2-102.665 39.2-162.325 0-57.69-10.51-102.664-36.645-156.385-5.605-11.549-10.195-22.29-10.195-23.83 0-5.725 4.745-14.018 9.865-17.275 7.05-4.482 18.83-3.633 24.475 1.718 2.165 1.974 7.81 11.411 12.54 20.789a398 398 0 0 1 37.83 120.178c3.91 26.235 4.69 75.925 1.565 99.935A396.6 396.6 0 0 1 596 767.495c-11.195 23.395-18.205 33.03-24.085 33.03-1.445.04-2.885.26-4.28.65-2.415.245-4.86-.03-7.165-.805zm-76.079-40.235c-9.766-2.88-16.857-15.025-14.024-24.105.684-2.21 5.292-12.34 10.234-22.545 20.939-43.16 29.649-89.415 25.394-134.845-3.5-37.315-10.12-60.85-26.781-95.3-11.191-23.099-11.719-26.671-5.214-35.99 6.192-8.845 21.623-10.268 29.73-2.746 5.625 5.193 23.085 42.093 29.845 62.981 22.28 69.27 18.81 144.38-9.77 211.25-14.53 34.825-24.805 45.565-39.336 41.3zm-78.462-40.81a23.7 23.7 0 0 1-8.078-6.47 24.06 24.06 0 0 1-4.597-9.32c-.86-3.95.625-8.355 7.812-23.04 26.369-53.94 26.641-105.905.879-158.595-11.329-23.14-11.564-27.74-1.953-36.881 4.726-4.501 6.719-5.292 13.36-5.292 11.134 0 16.895 5.647 26.837 26.298 15.294 31.745 21.485 59.23 21.485 94.59 0 36.265-5.86 61.2-22.247 94.645-9.356 19.17-13.984 24.245-23.34 25.53a21.3 21.3 0 0 1-10.118-1.525zm-73.148-38.005c-4.785-1.97-10.255-8.585-11.875-14.31-1.817-6.4-.333-11.49 6.855-23.435 9.258-15.38 11.407-23.69 11.407-43.71s-2.149-28.355-11.407-43.715a88.6 88.6 0 0 1-6.993-13.82c-2.968-10.125 5.371-22.545 16.602-24.675 9.493-1.82 16.038 2.485 24.788 16.285 25.392 39.94 25.392 93.305 0 132.91-8.927 13.98-18.908 18.915-29.298 14.53zM878.26 743.47c5.535-1.855 10.965-4 16.27-6.44.47-.47-1.17-5.92-3.635-12.16-5.075-12.735-4.255-12.415-22.285-8.92-19.53 3.77-30.76.41-52.07-15.46-5.86-4.305-11.72-7.9-13.305-7.9-1.58 0-4.845 2.25-7.385 5.015-5.445 5.925-6.285 15.165-1.835 20.635 3.91 4.755 57.37 30.48 63.715 30.64 2.815 0 12.055-2.33 20.53-5.41m-8.42-41.46c7.93-1.6 8.79-2.155 7.445-4.74-1.35-2.585-75.535-64.935-81.94-68.725-5.295-3.12-9.59-2.41-13.985 2.35-12.855 13.94-11.35 16.86 21.935 42.645 40.14 31.21 44.435 33.05 66.545 28.545zm-99.34-93.975c0-.395-8.4-7.7-18.655-16.23-25.39-21.105-30.78-28.965-30.78-44.56 0-13.03 8.595-25.665 22.44-32.85 6.855-3.595 19.105-4.72 26.04-2.41 4.9 1.635 26.99 13.82 57.635 31.585l6.47 3.755 5.31-25.49c5.45-26.119 5.55-32.97.51-34.569-1.545-.474-31.075-5.924-65.65-12.045-61.37-10.917-68.07-11.567-70.92-6.888-1.525 2.488-24.885 111.862-24.885 116.482.03 2.395.96 4.69 2.595 6.415 1.445 1.205 21.35 5.57 44.26 9.715 44.245 8.055 45.63 8.27 45.63 7.165z"/></svg>

<svg width="1200" height="1200" viewBox="0 0 1200 1200" fill="none" xmlns="http://www.w3.org/2000/svg"><path d="M469.918 898.905C350.771 888.34 245.55 843.625 177.05 774.525C137.986 735.04 114.352 692.335 103.648 641.93C98.764 618.99 98.803 580.925 103.648 557.805C118.492 487.719 163.299 426.398 233.869 379.627C394.796 273.015 641.33 273.489 800.735 380.87C820.27 393.768 838.38 408.755 854.745 425.57C878.905 449.695 895.9 473.663 913.83 508.905C914.495 510.205 917.735 511.865 921.135 512.555C932.44 514.945 947.52 523.83 959.67 535.3C969.085 544.185 976.37 553.875 994.34 581.34C1012.31 608.8 1094.5 737.07 1099.485 745.44C1101.435 748.7 1097.53 753.935 1093.27 753.935C1090.205 753.935 1088.015 751.86 1083.505 744.675C1080.3 739.58 1059.385 706.745 1037.02 671.74C957.875 547.815 953.555 542.07 931.545 530.935L919.94 525.015H885.895C851.91 525.015 851.87 525.015 851.03 528.63C846.52 548.37 845.7 553.305 846.675 554.295C847.3 554.885 866.62 566 889.645 578.99L931.445 602.685L928.83 608.21C927.385 611.27 925.745 613.76 925.155 613.76C924.57 613.76 889.415 594.015 847.03 570.03C804.64 546.04 767.475 525.605 764.445 524.76C752.395 521.4 733.855 534.905 733.855 547.05C733.855 559.19 737.49 562.96 811.985 624.62C858.455 663.075 885.035 686.195 889.1 691.645C896.485 701.515 903.945 716.225 910.84 734.27C922.95 766.015 942.64 783.725 974.945 791.9L985.57 794.605L984.67 800.525C984.435 802.78 983.925 804.995 983.15 807.12C981.78 808.7 960.375 801.81 947.99 795.785C928.615 786.37 915.315 772.965 902.225 749.67C902.13 749.51 894.53 752.135 885.35 755.59C869.02 761.615 868.28 762.105 852.87 777.31C787.18 842.105 692.975 883.505 579.22 897.58C560.78 899.85 489.645 900.86 469.996 899.12L469.918 898.905ZM583.205 878.965C635.395 871.995 675.865 861.51 718.23 844C762.685 825.6 804.625 799.145 833.96 770.95L845.525 759.855L816.42 745.8C785.325 730.795 782.26 728.305 778.275 714.88C775.775 706.41 778.605 697.41 786.555 688.705L792.73 681.91L779.23 671.545C768.545 663.35 765.205 659.7 763.155 654.33C761.515 650.07 760.95 645.465 761.52 640.93C762.09 636.395 763.775 632.075 766.42 628.37L770.52 622.445L727.88 614.865C704.44 610.7 682.565 606.49 679.305 605.505C672.915 603.53 666.395 596.265 664.715 589.04C663.815 585.09 684.715 482.033 689.38 467.324C691.47 460.75 700.4 452.794 707.135 451.53C713.875 450.267 839.86 472.538 846.13 476.23C856.03 482.153 859.155 491.491 856.015 505.945L854.705 512.005H861.66C865.565 512.005 874.55 511.53 881.775 510.955L894.94 509.93L888.415 497.67C868.65 460.572 832.945 423.259 788.8 393.605C768.255 379.785 724.345 357.91 697.92 348.354C656.89 333.975 614.35 324.448 571.155 319.964C547.19 317.438 484.391 317.477 461.128 319.964C405.344 326.085 354.696 338.838 310.416 357.91C207.891 402.094 138.962 475.281 121.324 558.695C116.715 580.41 116.343 618.655 120.562 638.475C129.899 682.305 150.272 720.25 183.438 755.55C250.98 827.495 354.149 871.68 477.867 881.67C494.45 883.17 566.33 881.215 583.125 878.965H583.205ZM560.47 800.465C554.08 798.59 547.615 790.93 546.25 783.585C545.37 778.83 546.445 775.51 553.225 762.285C580.57 708.84 592.425 659.62 592.425 599.96C592.425 542.27 581.915 497.296 555.78 443.575C550.175 432.026 545.585 421.285 545.585 419.745C545.585 414.02 550.33 405.727 555.45 402.47C562.5 397.988 574.28 398.837 579.925 404.188C582.09 406.162 587.735 415.599 592.465 424.977C611.36 462.729 624.135 503.305 630.295 545.155C634.205 571.39 634.985 621.08 631.86 645.09C626.58 687.595 614.465 728.94 596 767.495C584.805 790.89 577.795 800.525 571.915 800.525C570.47 800.565 569.03 800.785 567.635 801.175C565.22 801.42 562.775 801.145 560.47 800.37V800.465ZM484.391 760.23C474.624 757.35 467.534 745.205 470.367 736.125C471.051 733.915 475.659 723.785 480.601 713.58C501.54 670.42 510.25 624.165 505.995 578.735C502.495 541.42 495.875 517.885 479.214 483.435C468.023 460.336 467.495 456.764 474 447.445C480.192 438.6 495.622 437.177 503.73 444.699C509.355 449.892 526.815 486.791 533.575 507.68C555.855 576.95 552.385 652.06 523.805 718.93C509.275 753.755 499 764.495 484.469 760.23H484.391ZM405.929 719.42C402.8 717.89 400.042 715.68 397.851 712.95C395.661 710.22 394.091 707.04 393.254 703.63C392.394 699.68 393.879 695.275 401.066 680.59C427.435 626.65 427.707 574.685 401.945 521.995C390.616 498.855 390.381 494.255 399.992 485.114C404.718 480.613 406.711 479.822 413.352 479.822C424.486 479.822 430.247 485.469 440.189 506.12C455.483 537.865 461.674 565.35 461.674 600.71C461.674 636.975 455.814 661.91 439.427 695.355C430.071 714.525 425.443 719.6 416.087 720.885C412.642 721.205 409.171 720.685 405.969 719.36L405.929 719.42ZM332.781 681.415C327.996 679.445 322.526 672.83 320.906 667.105C319.089 660.705 320.573 655.615 327.761 643.67C337.019 628.29 339.168 619.98 339.168 599.96C339.168 579.94 337.019 571.605 327.761 556.245C325.033 551.855 322.692 547.23 320.768 542.425C317.8 532.3 326.139 519.88 337.37 517.75C346.863 515.93 353.408 520.235 362.158 534.035C387.55 573.975 387.55 627.34 362.158 666.945C353.231 680.925 343.25 685.86 332.86 681.475L332.781 681.415ZM878.26 743.47C883.795 741.615 889.225 739.47 894.53 737.03C895 736.56 893.36 731.11 890.895 724.87C885.82 712.135 886.64 712.455 868.61 715.95C849.08 719.72 837.85 716.36 816.54 700.49C810.68 696.185 804.82 692.59 803.235 692.59C801.655 692.59 798.39 694.84 795.85 697.605C790.405 703.53 789.565 712.77 794.015 718.24C797.925 722.995 851.385 748.72 857.73 748.88C860.545 748.88 869.785 746.51 878.26 743.43V743.47ZM869.84 702.01C877.77 700.41 878.63 699.855 877.285 697.27C875.935 694.685 801.75 632.335 795.345 628.545C790.05 625.425 785.755 626.135 781.36 630.895C768.505 644.835 770.01 647.755 803.295 673.54C843.435 704.75 847.73 706.59 869.84 702.085V702.01ZM770.5 608.035C770.5 607.64 762.1 600.335 751.845 591.805C726.455 570.7 721.065 562.84 721.065 547.245C721.065 534.215 729.66 521.58 743.505 514.395C750.36 510.8 762.61 509.675 769.545 511.985C774.445 513.62 796.535 525.805 827.18 543.57L833.65 547.325L838.96 521.835C844.41 495.716 844.51 488.865 839.47 487.266C837.925 486.792 808.395 481.342 773.82 475.221C712.45 464.304 705.75 463.654 702.9 468.333C701.375 470.821 678.015 580.195 678.015 584.815C678.045 587.21 678.975 589.505 680.61 591.23C682.055 592.435 701.96 596.8 724.87 600.945C769.115 609 770.5 609.215 770.5 608.11V608.035Z" fill="#1D1E23"/></svg>
